public/assets/articles/blog/logo.svg

<?xml version="1.0" encoding="UTF-8"?>
<svg width="100px" height="40px" viewBox="0 0 100 40" version="1.1" xmlns="http://www.w3.org/2000/svg" xmlns:xlink="http://www.w3.org/1999/xlink">
    <!-- Generator: Sketch 41 (35326) - http://www.bohemiancoding.com/sketch -->
    <title>_datica-logo-deep</title>
    <desc>Created with Sketch.</desc>
    <defs></defs>
    <g id="Symbols" stroke="none" stroke-width="1" fill="none" fill-rule="evenodd">
        <g id="_header-dark" fill="#010101">
            <g id="_datica-logo-deep">
                <path d="M1.01475424,16.1049869 L2.76295133,13.2283465 L11.7425432,23.9370079 L1.01475424,16.1049869 Z M2.76295133,30.3412073 L2.76295133,26.4566929 L16.577708,28.3884514 L2.76295133,30.3412073 Z M14.1915228,39.160105 L11.596023,36.2834646 L23.1501832,28.4514436 L14.1915228,39.160105 Z M28.5504971,38.0682415 L24.6991104,37.6692913 L28.0690738,24.0839895 L28.5504971,38.0682415 Z M38.5138671,27.6115486 L35.3741497,29.8792651 L28.822606,17.5328084 L38.5138671,27.6115486 Z M38.9324961,13.144357 L38.1161695,16.9448819 L25.0130822,12.1574803 L38.9324961,13.144357 Z M29.5970696,2.12073491 L31.522763,5.50131234 L18.5871272,10.7296588 L29.5970696,2.12073491 Z M15.3008896,0.209973753 L18.9848247,1.40682415 L12.8728414,13.984252 L15.3008896,0.209973753 Z M3.39089482,8.35695538 L6.92830979,6.78215223 L10.7796965,20.2414698 L3.39089482,8.35695538 Z M0,22.4251969 L1.56985871,18.8766404 L13.4170591,26.2887139 L0,22.4251969 Z M6.84458399,35.1496063 L5.65149137,31.4540682 L19.3825222,29.0183727 L6.84458399,35.1496063 Z M20.4290947,40 L17.0591313,38.0682415 L25.6619571,27.023622 L20.4290947,40 Z M33.762428,34.4986877 L29.9738357,35.3175853 L28.9900576,21.3543307 L33.762428,34.4986877 Z M40,21.4593176 L37.718472,24.6089239 L27.6713762,14.8871391 L40,21.4593176 Z M35.9392988,7.60104987 L36.3369963,11.4645669 L22.396651,10.9816273 L35.9392988,7.60104987 Z M23.6734694,1.0658141e-14 L26.541078,2.60367454 L15.8660387,11.6115486 L23.6734694,1.0658141e-14 Z M9.48194662,2.60367454 L13.3542648,2.60367454 L11.40764,16.4619423 L9.48194662,2.60367454 Z M48,26.1872576 L52.5030471,26.1872576 C56.2437673,26.1872576 58.6371191,23.5634349 58.6371191,19.8404432 C58.6371191,16.1174515 56.2260388,13.6 52.5385042,13.6 L48,13.6 L48,26.1872576 Z M65.9235457,24.6626039 C65.9412742,25.2121884 65.9944598,25.7440443 66.065374,26.1872576 L68.1927978,26.1872576 C68.0155125,25.566759 67.9268698,24.6448753 67.9268698,23.4393352 L67.9268698,20.7977839 C67.9268698,18.2271468 66.7567867,17.1102493 64.132964,17.1102493 C61.8459834,17.1102493 60.3567867,18.2803324 60.2149584,20.1772853 L62.3955679,20.1772853 C62.466482,19.166759 63.0869806,18.6171745 64.132964,18.6171745 C65.26759,18.6171745 65.7817175,19.1844875 65.7817175,20.5141274 L65.7817175,20.7445983 L63.9024931,20.9750693 C62.5019391,21.1700831 61.6509695,21.400554 61.0127424,21.7728532 C60.3036011,22.2160665 59.9313019,22.9252078 59.9313019,23.7761773 C59.9313019,25.3540166 61.1368421,26.4 62.9451524,26.4 C64.3811634,26.4 65.4980609,25.7440443 65.9235457,24.6626039 Z M69.3274238,18.865374 L70.9229917,18.865374 L70.9229917,23.4393352 C70.9229917,25.2299169 71.632133,26.3468144 73.7595568,26.3468144 C74.3091413,26.3468144 74.699169,26.2936288 75.2132964,26.1872576 L75.2132964,24.3966759 C74.9296399,24.46759 74.699169,24.5030471 74.3445983,24.5030471 C73.4581717,24.5030471 73.0504155,24.0598338 73.0504155,23.1024931 L73.0504155,18.865374 L75.2132964,18.865374 L75.2132964,17.3229917 L73.0504155,17.3229917 L73.0504155,14.2382271 L70.9229917,15.0891967 L70.9229917,17.3229917 L69.3274238,17.3229917 L69.3274238,18.865374 Z M77.0570637,15.8515235 L79.3617729,15.8515235 L79.3617729,13.6354571 L77.0570637,13.6354571 L77.0570637,15.8515235 Z M77.1634349,26.1872576 L79.2908587,26.1872576 L79.2908587,17.3229917 L77.1634349,17.3229917 L77.1634349,26.1872576 Z M89.6265928,23.2265928 L87.6232687,22.8188366 C87.4282548,24.0598338 86.7722992,24.7157895 85.7085873,24.7157895 C84.3434903,24.7157895 83.5457064,23.6166205 83.5457064,21.7019391 C83.5457064,19.8759003 84.3612188,18.7767313 85.6731302,18.7767313 C86.7191136,18.7767313 87.4105263,19.432687 87.5523546,20.6382271 L89.6265928,20.301385 C89.3606648,18.2803324 87.9246537,17.1102493 85.7263158,17.1102493 C83.0315789,17.1102493 81.365097,18.865374 81.365097,21.7551247 C81.365097,24.5739612 83.067036,26.4 85.7085873,26.4 C87.8182825,26.4 89.3074792,25.1944598 89.6265928,23.2265928 Z M96.8952909,24.6626039 C96.9130194,25.2121884 96.966205,25.7440443 97.0371191,26.1872576 L99.1645429,26.1872576 C98.9872576,25.566759 98.898615,24.6448753 98.898615,23.4393352 L98.898615,20.7977839 C98.898615,18.2271468 97.7285319,17.1102493 95.1047091,17.1102493 C92.8177285,17.1102493 91.3285319,18.2803324 91.1867036,20.1772853 L93.367313,20.1772853 C93.4382271,19.166759 94.0587258,18.6171745 95.1047091,18.6171745 C96.2393352,18.6171745 96.7534626,19.1844875 96.7534626,20.5141274 L96.7534626,20.7445983 L94.8742382,20.9750693 C93.4736842,21.1700831 92.6227147,21.400554 91.9844875,21.7728532 C91.2753463,22.2160665 90.9030471,22.9252078 90.9030471,23.7761773 C90.9030471,25.3540166 92.1085873,26.4 93.9168975,26.4 C95.3529086,26.4 96.4698061,25.7440443 96.8952909,24.6626039 Z M93.101385,23.6698061 C93.101385,22.9074792 93.633241,22.4819945 94.8033241,22.2869806 L96.8066482,21.9855956 L96.8066482,22.5529086 C96.8066482,23.9711911 95.9202216,24.8930748 94.6083102,24.8930748 C93.6686981,24.8930748 93.101385,24.4144044 93.101385,23.6698061 Z M62.1296399,23.6698061 C62.1296399,22.9074792 62.6614958,22.4819945 63.8315789,22.2869806 L65.834903,21.9855956 L65.834903,22.5529086 C65.834903,23.9711911 64.9484765,24.8930748 63.6365651,24.8930748 C62.6969529,24.8930748 62.1296399,24.4144044 62.1296399,23.6698061 Z M50.2869806,24.3966759 L50.2869806,15.3905817 L52.46759,15.3905817 C54.931856,15.3905817 56.2437673,17.2875346 56.2437673,19.8404432 C56.2437673,22.3401662 54.8786704,24.3966759 52.432133,24.3966759 L50.2869806,24.3966759 Z"></path>
            </g>
        </g>
    </g>
</svg>

<svg width="100" height="40" xmlns="http://www.w3.org/2000/svg"><path d="M1.015 16.105l1.748-2.877 8.98 10.709-10.728-7.832zm1.748 14.236v-3.884l13.815 1.931-13.815 1.953zm11.429 8.82l-2.596-2.878 11.554-7.832-8.958 10.71zm14.358-1.093l-3.85-.399 3.37-13.585.48 13.984zm9.964-10.456l-3.14 2.267-6.551-12.346 9.69 10.079zm.418-14.468l-.816 3.8-13.103-4.787 13.92.987zM29.597 2.121l1.926 3.38-12.936 5.229 11.01-8.61zM15.301.21l3.684 1.197-6.112 12.577L15.3.21zM3.39 8.357l3.537-1.575 3.852 13.46L3.39 8.356zM0 22.425l1.57-3.548 11.847 7.412L0 22.425zM6.845 35.15L5.65 31.454l13.732-2.436L6.845 35.15zM20.429 40l-3.37-1.932 8.603-11.044L20.429 40zm13.333-5.501l-3.788.819-.984-13.964L33.762 34.5zM40 21.459l-2.282 3.15-10.047-9.722L40 21.46zM35.94 7.601l.397 3.864-13.94-.483L35.939 7.6zM23.672 0l2.868 2.604-10.675 9.008L23.673 0zM9.482 2.604h3.872l-1.946 13.858L9.482 2.604zM48 26.187h4.503c3.74 0 6.134-2.624 6.134-6.347 0-3.723-2.411-6.24-6.098-6.24H48v12.587zm17.924-1.524c.017.55.07 1.081.141 1.524h2.128c-.177-.62-.266-1.542-.266-2.748v-2.641c0-2.57-1.17-3.688-3.794-3.688-2.287 0-3.776 1.17-3.918 3.067h2.18c.071-1.01.692-1.56 1.738-1.56 1.135 0 1.649.567 1.649 1.897v.23l-1.88.231c-1.4.195-2.251.426-2.89.798-.708.443-1.08 1.152-1.08 2.003 0 1.578 1.205 2.624 3.013 2.624 1.436 0 2.553-.656 2.979-1.737zm3.403-5.798h1.596v4.574c0 1.79.71 2.908 2.837 2.908.55 0 .94-.053 1.453-.16v-1.79c-.283.07-.514.106-.868.106-.887 0-1.295-.443-1.295-1.4v-4.238h2.163v-1.542H73.05v-3.085l-2.127.851v2.234h-1.596v1.542zm7.73-3.013h2.305v-2.217h-2.305v2.217zm.106 10.335h2.128v-8.864h-2.128v8.864zm12.464-2.96l-2.004-.408c-.195 1.24-.85 1.897-1.914 1.897-1.366 0-2.163-1.1-2.163-3.014 0-1.826.815-2.925 2.127-2.925 1.046 0 1.738.656 1.88 1.861l2.074-.337c-.266-2.02-1.702-3.19-3.9-3.19-2.695 0-4.362 1.754-4.362 4.644 0 2.819 1.702 4.645 4.344 4.645 2.11 0 3.598-1.206 3.918-3.173zm7.268 1.436c.018.55.071 1.081.142 1.524h2.128c-.178-.62-.266-1.542-.266-2.748v-2.641c0-2.57-1.17-3.688-3.794-3.688-2.287 0-3.776 1.17-3.918 3.067h2.18c.071-1.01.692-1.56 1.738-1.56 1.134 0 1.648.567 1.648 1.897v.23l-1.879.231c-1.4.195-2.251.426-2.89.798-.709.443-1.081 1.152-1.081 2.003 0 1.578 1.206 2.624 3.014 2.624 1.436 0 2.553-.656 2.978-1.737zm-3.794-.993c0-.763.532-1.188 1.702-1.383l2.004-.301v.567c0 1.418-.887 2.34-2.199 2.34-.94 0-1.507-.479-1.507-1.223zm-30.971 0c0-.763.531-1.188 1.702-1.383l2.003-.301v.567c0 1.418-.887 2.34-2.198 2.34-.94 0-1.507-.479-1.507-1.223zm-11.843.727V15.39h2.18c2.465 0 3.777 1.897 3.777 4.45 0 2.5-1.365 4.556-3.812 4.556h-2.145z" fill="#010101" fill-rule="evenodd"/></svg>
